src/themes/mediawiki/images/icons/imageLock-rtl.svg

<?xml version="1.0" encoding="utf-8"?>
<svg xmlns="http://www.w3.org/2000/svg" width="24" height="24" viewBox="0 0 24 24">
    <path d="M4.5 4h3v-1s0-1.5-1.5-1.5c-1.5.06-1.5 1.5-1.5 1.5zm-1.5 0v-1s0-3 3-3 3 3 3 3v1h1v6h-8v-6zm8 7v-6h11v15h-20v-9zm9 7l-4-5-2-1-4 4-2-2-4 4z" id="path304"/>
</svg>

<?xml version="1.0" encoding="utf-8"?>
<svg xmlns="http://www.w3.org/2000/svg" width="24" height="24" viewBox="0 0 24 24">
    <path d="M4.5 4h3V3s0-1.5-1.5-1.5C4.5 1.56 4.5 3 4.5 3zM3 4V3s0-3 3-3l3 3v1h1v6H2V4zm8 7V5h11v15H2v-9zm9 7l-4-5-2-1-4 4-2-2-4 4z" id="path304"/>
</svg>
